packages/kaspersky-hexa-ui-icons/src/iconsSVGs/16/Printer.svg

<svg width="16" height="16" viewBox="0 0 16 16" fill="none" xmlns="http://www.w3.org/2000/svg">
<path fill-rule="evenodd" clip-rule="evenodd" d="M5.48105 1.02905C4.56978 1.02905 3.83105 1.76778 3.83105 2.67905V4.5614H2.67051C1.75924 4.5614 1.02051 5.30013 1.02051 6.2114V10.695C1.02051 11.6063 1.75924 12.345 2.67051 12.345H3.83008V13.321C3.83008 14.2323 4.56881 14.971 5.48008 14.971H10.5214C11.4327 14.971 12.1714 14.2323 12.1714 13.321V12.345H13.3305C14.2418 12.345 14.9805 11.6063 14.9805 10.695V6.2114C14.9805 5.30013 14.2418 4.5614 13.3305 4.5614H12.1724V2.67905C12.1724 1.76778 11.4337 1.02905 10.5224 1.02905H5.48105ZM12.1714 11.045H13.3305C13.5238 11.045 13.6805 10.8883 13.6805 10.695V6.2114C13.6805 6.0181 13.5238 5.8614 13.3305 5.8614H2.67051C2.47721 5.8614 2.32051 6.0181 2.32051 6.2114V10.695C2.32051 10.8883 2.47721 11.045 2.67051 11.045H3.83008V10.5338C3.83008 9.62252 4.56881 8.88379 5.48008 8.88379H10.5214C11.4327 8.88379 12.1714 9.62252 12.1714 10.5338V11.045ZM5.13105 2.67905C5.13105 2.48575 5.28776 2.32905 5.48105 2.32905H10.5224C10.7157 2.32905 10.8724 2.48575 10.8724 2.67905V4.56133H5.13105V2.67905ZM5.13008 10.5338C5.13008 10.3405 5.28678 10.1838 5.48008 10.1838H10.5214C10.7147 10.1838 10.8714 10.3405 10.8714 10.5338V13.321C10.8714 13.5143 10.7147 13.671 10.5214 13.671H5.48008C5.28678 13.671 5.13008 13.5143 5.13008 13.321V10.5338Z" fill="black"/>
</svg>

<svg xmlns="http://www.w3.org/2000/svg" width="16" height="16" fill="none" viewBox="0 0 16 16"><path fill="#000" fill-rule="evenodd" d="M5.481 1.029c-.9112 0-1.65.7388-1.65 1.65v1.8824H2.6705c-.9113 0-1.65.7387-1.65 1.65v4.4836c0 .9113.7387 1.65 1.65 1.65h1.1596v.976c0 .9113.7387 1.65 1.65 1.65h5.0413c.9113 0 1.65-.7387 1.65-1.65v-.976h1.1591c.9113 0 1.65-.7387 1.65-1.65V6.2114c0-.9113-.7387-1.65-1.65-1.65h-1.1581V2.6791c0-.9113-.7387-1.65-1.65-1.65zm6.6904 10.016h1.1591a.35.35 0 0 0 .35-.35V6.2114a.35.35 0 0 0-.35-.35h-10.66a.35.35 0 0 0-.35.35v4.4836a.35.35 0 0 0 .35.35h1.1596v-.5112c0-.9113.7387-1.65 1.65-1.65h5.0413c.9113 0 1.65.7387 1.65 1.65zM5.1311 2.679a.35.35 0 0 1 .35-.35h5.0413a.35.35 0 0 1 .35.35v1.8823H5.131zm-.001 7.8548a.35.35 0 0 1 .35-.35h5.0413a.35.35 0 0 1 .35.35v2.7872a.35.35 0 0 1-.35.35H5.4801a.35.35 0 0 1-.35-.35z"/></svg>
